X:1
T:Dawn (Funk), LM
T:Dawn (Funk), LM
T:Harmonia Sacra, 1847
T:Public Domain Courtesy of the Cyber Hymnal™
C:Harmonia Sacra, 1847
Z:Public Domain
Z:Courtesy of the Cyber Hymnal™
%%score ( 1 2 ) ( 3 4 )
L:1/8
Q:1/4=103
M:2/4
K:A
V:1 treble 
V:2 treble 
V:3 bass 
V:4 bass 
V:1
 E2 | [EA]2 (Bc) | A2 EE | [DF]2 ([Fd][DB]) | [CA]2 [EG][GB] | A2 ([GB][Fc]) | [EA]2 [DF]2 | %7
 (Ec) (BG) | !fermata![EA]2 | z [Ae] | [Ae]2 (cA) | [GB]2 [Gc][Bd] | [Ae]2 (cA) | [Ac]2 [GB][EA] | %14
 [EA]2 (GF) | (E[Ae]) ([Ge][Bd]) | [Ac]2 [GB]2 | !fermata!A2 |] %18
V:2
 E2 | x2 E2 | E3 E | x4 | x4 | A2 x2 | x4 | C2 E2 | x2 | x2 | x2 A2 | x4 | x2 A2 | x4 | x2 E2 | %15
 E x3 | x4 | A2 |] %18
V:3
 [E,C]2 | [A,,C]2 ([E,E][C,C]) | [A,,C]3 [C,C] | [D,A,]2 (A,B,) | C2 B,[E,B,] | %5
 [A,,C]2 ([E,E][A,,C]) | [C,C]2 [D,A,]2 | [E,E]2 [E,E]2 | !fermata![A,,C]2 | z C | %10
 C2 ([A,C][C,E]) | [E,E]2 [CE][B,D] | [A,C]2 (CE) | [E,E]3 [A,,C] | [A,,C]2 C2 | C2 ([C,C][D,D]) | %16
 [E,E]2 [E,E]2 | !fermata![A,,C]2 |] %18
V:4
 x2 | x4 | x4 | x2 D,2 | E,3 x | x4 | x4 | x4 | x2 | x C | C2 x2 | x4 | x2 A,2 | x4 | x2 (C,B,,) | %15
 (A,,C,) x2 | x4 | x2 |] %18

